X: 20381
M: 6/8
L: 1/8
K: A
V: 1 staves=3
z |\
a2e c2A | Ace a3 | agf edc | Bed cBA |\
a2e c2A | Ace a3 | agf edc | edB A2 :|
|: A |\
c2e efe | efe c2A | d2f fgf | fga e3 |\
c2e efe | efe c2A | agf edc | edB A2 :|
V: 2
z |\
e2c A2E | EAc f3 | fed cBA | GcB EDC |\
e2c A2E | EAc f3 | fed cBA | cBD C2 :|
|: z |\
V: 3 clef=bass middle=d
z |\
a3 a3 | a3 a3 | a3 a3 | e3 e3 |\
a3 a3 | a3 a3 | c3 d3 | e3 [a2A2] :|
|: z |\
a3 a3 | a3 a3 | d3 d3 | d3 A3 |\
a3 a3 | a3 a3 | c3 d3 | e3 A2 :|


